dist/intermediate-svg/wrench.svg

<?xml version="1.0" encoding="utf-8"?><svg width="13" height="12" fill="none" xmlns="http://www.w3.org/2000/svg" viewBox="0 0 13 12"><path d="M11.8434 4.46978C11.3863 5.48563 10.472 6.29832 9.35461 6.4507C8.84668 6.55229 8.33876 6.50146 7.88163 6.34908L2.39601 11.8347C2.19284 12.0379 1.88809 12.0379 1.68492 11.8347L0.262729 10.4125C0.0595589 10.2093 0.0595589 9.90455 0.262729 9.70138L5.69753 4.26659C5.54516 3.80946 5.49437 3.25074 5.59596 2.74282C5.74833 1.62538 6.56101 0.711097 7.57687 0.253963C8.08479 0.0507926 8.54192 0 8.99905 0C9.20222 0 9.30382 0.253988 9.15144 0.406366L7.93242 1.6254C7.88163 1.67619 7.83083 1.77778 7.88163 1.87936L8.28796 3.60627C8.28796 3.70785 8.38954 3.75866 8.49113 3.80945L10.2181 4.21581C10.3197 4.21581 10.3705 4.21583 10.4721 4.16503L11.6911 2.946C11.8435 2.79362 12.0974 2.89517 12.0974 3.09834C12.1482 3.50468 12.0466 3.96185 11.8434 4.46978Z" fill="#0094FF"/></svg>

<?xml version="1.0" encoding="utf-8"?><svg width="13" height="12" fill="none" xmlns="http://www.w3.org/2000/svg" viewBox="0 0 13 12"><path d="M11.843 4.47c-.457 1.016-1.371 1.828-2.488 1.98a2.876 2.876 0 01-1.473-.1l-5.486 5.485a.49.49 0 01-.711 0L.263 10.412a.491.491 0 010-.71l5.435-5.435a3.075 3.075 0 01-.102-1.524C5.748 1.625 6.561.71 7.576.254A3.67 3.67 0 019 0c.203 0 .305.254.152.406l-1.219 1.22c-.05.05-.101.152-.05.253l.406 1.727c0 .102.102.153.203.203l1.727.407c.102 0 .152 0 .254-.051l1.22-1.219c.152-.152.405-.05.405.152.051.407-.05.864-.254 1.372z" fill="#0094FF"/></svg>
